Numix-GalliumOS/24/mimetypes/application-font.svg

<?xml version="1.0" encoding="UTF-8" standalone="no"?>
<svg
   xmlns:dc="http://purl.org/dc/elements/1.1/"
   xmlns:cc="http://creativecommons.org/ns#"
   xmlns:rdf="http://www.w3.org/1999/02/22-rdf-syntax-ns#"
   xmlns:svg="http://www.w3.org/2000/svg"
   xmlns="http://www.w3.org/2000/svg"
   xmlns:sodipodi="http://sodipodi.sourceforge.net/DTD/sodipodi-0.dtd"
   xmlns:inkscape="http://www.inkscape.org/namespaces/inkscape"
   width="24"
   height="24"
   viewBox="0 0 24 24"
   id="svg2"
   version="1.1"
   inkscape:version="0.48.5 r10040"
   sodipodi:docname="application-font.svg">
  <metadata
     id="metadata16">
    <rdf:RDF>
      <cc:Work
         rdf:about="">
        <dc:format>image/svg+xml</dc:format>
        <dc:type
           rdf:resource="http://purl.org/dc/dcmitype/StillImage" />
      </cc:Work>
    </rdf:RDF>
  </metadata>
  <defs
     id="defs14" />
  <sodipodi:namedview
     pagecolor="#ffffff"
     bordercolor="#666666"
     borderopacity="1"
     objecttolerance="10"
     gridtolerance="10"
     guidetolerance="10"
     inkscape:pageopacity="0"
     inkscape:pageshadow="2"
     inkscape:window-width="1280"
     inkscape:window-height="970"
     id="namedview12"
     showgrid="true"
     inkscape:zoom="21.454546"
     inkscape:cx="17.661212"
     inkscape:cy="8.3565849"
     inkscape:window-x="0"
     inkscape:window-y="0"
     inkscape:window-maximized="1"
     inkscape:current-layer="svg2">
    <inkscape:grid
       type="xygrid"
       id="grid3004"
       empspacing="5"
       visible="true"
       enabled="true"
       snapvisiblegridlinesonly="true" />
  </sodipodi:namedview>
  <path
     style="fill:#dcdcdc"
     d="M 5.0000003,1.0000002 C 4.5273433,1.0000002 4,1.5273442 4,2.0000002 L 4,22 c 0,0.445312 0.5546873,1 1.0000003,1 L 19,23 c 0.445313,0 0.992367,-0.554753 1,-1 l 0,-14.9999998 -6,-6 z"
     id="path4"
     inkscape:connector-curvature="0"
     sodipodi:nodetypes="ssssssccs" />
  <path
     style="fill:#000000;fill-opacity:0.19599998"
     d="M 15,7.0000002 20,12 20,7.0000002 z"
     id="path6"
     inkscape:connector-curvature="0"
     sodipodi:nodetypes="cccc" />
  <path
     style="fill:#545454"
     d="m 14.53266,8 -0.677461,8.129527 c -0.03408,0.383469 -0.05113,0.630593 -0.05113,0.749893 0,0.195994 0.03408,0.34086 0.098,0.443119 0.08096,0.136344 0.195994,0.242863 0.332338,0.306775 0.144867,0.06817 0.387729,0.102258 0.72433,0.102258 L 14.886302,18 l -3.502343,0 0.07243,-0.268428 0.149127,0 c 0.28547,0 0.515551,-0.06817 0.694504,-0.200256 0.127822,-0.09374 0.22582,-0.242863 0.298252,-0.455902 0.04687,-0.149125 0.09374,-0.498507 0.136344,-1.052406 l 0.106519,-1.239881 -2.543673,0 -0.9075408,1.3464 c -0.2045163,0.306774 -0.3323396,0.524073 -0.3877293,0.656157 -0.051129,0.132083 -0.076693,0.255644 -0.076693,0.370685 0,0.153388 0.05539,0.285471 0.1704303,0.39625 0.1150407,0.110781 0.302513,0.170431 0.5624201,0.178953 L 9.5859197,18 6.957031,18 7.0294647,17.731572 c 0.3238166,-0.01278 0.6092876,-0.132084 0.8521517,-0.353643 0.2513839,-0.22582 0.6178097,-0.703025 1.107796,-1.435876 L 14.302579,8 14.53266,8 m -1.299531,2.398807 -2.57776,3.860247 2.2369,0 0.34086,-3.860247"
     id="path10"
     inkscape:connector-curvature="0" />
  <path
     style="fill:#ffffff;fill-opacity:0.39200003"
     d="m 14,1.0000002 6,6 -5,0 c -0.445312,0 -1,-0.554688 -1,-1 z"
     id="path8"
     inkscape:connector-curvature="0"
     sodipodi:nodetypes="ccssc" />
</svg>

<svg xmlns="http://www.w3.org/2000/svg" viewBox="0 0 24 24">
 <path d="m 5 1 c -0.473 0 -1 0.527 -1 1 l 0 20 c 0 0.445 0.555 1 1 1 l 14 0 c 0.445 0 0.992 -0.555 1 -1 l 0 -15 -6 -6 z" style="fill:#dcdcdc"/>
 <path d="m 15 7 5 5 0 -5 z" style="fill:#000;fill-opacity:0.196"/>
 <path d="m 14.533 8 -0.677 8.13 c -0.034 0.383 -0.051 0.631 -0.051 0.75 0 0.196 0.034 0.341 0.098 0.443 0.081 0.136 0.196 0.243 0.332 0.307 0.145 0.068 0.388 0.102 0.724 0.102 l -0.072 0.268 l -3.502 0 0.072 -0.268 0.149 0 c 0.285 0 0.516 -0.068 0.695 -0.2 0.128 -0.094 0.226 -0.243 0.298 -0.456 0.047 -0.149 0.094 -0.499 0.136 -1.052 l 0.107 -1.24 -2.544 0 -0.908 1.346 c -0.205 0.307 -0.332 0.524 -0.388 0.656 -0.051 0.132 -0.077 0.256 -0.077 0.371 0 0.153 0.055 0.285 0.17 0.396 0.115 0.111 0.303 0.17 0.562 0.179 l -0.072 0.268 -2.629 0 0.072 -0.268 c 0.324 -0.013 0.609 -0.132 0.852 -0.354 0.251 -0.226 0.618 -0.703 1.108 -1.436 l 5.313 -7.942 0.23 0 m -1.3 2.399 -2.578 3.86 2.237 0 0.341 -3.86" style="fill:#555;fill-opacity:1"/>
 <path d="m 14 1 6 6 -5 0 c -0.445 0 -1 -0.555 -1 -1 z" style="fill:#fff;fill-opacity:0.392"/>
</svg>
